X:1
T:Title
%%score { 1 | ( 2 3 4 ) }
L:1/8
Q:1/4=189
M:3/4
K:Bb
V:1 treble nm="Grand Piano"
V:2 bass 
V:3 bass 
V:4 bass 
V:1
 [DF]2 E2 D2 | D4 _D2 | [E,C]2 E2[K:treble] D2 | [CE]6 | [EG]2 F2 E2 | [A,F]4 E2 | [F,D]2 F2 =E2 | %7
w: B.~D.~Ackley * *|||||||
 F6 | [F,D]2 D2[K:treble] E2 | F4 F2 | F2 G2 F2 | [G,CE]6 | [G,=E]2 E2 E2 | [DF]2 D2 G2 | %14
w: |||||||
 [DF]4 E2 | [F,B,D]6 | [F,D]2 _D2 =D2 | E4 E2 | [F,D]2 _D2 =D2 | [B,D]6 | [F,E]2 E2 E2 | E4 E2 | %22
w: ||||||||
 [F,E]2[K:treble] E2 E2 | E6 | [DF]2 G2 F2 | [C=E]2 E2 [A,_E]2 | [B,D]2 D2 D2 | [G,E]6 | %28
w: ||||||
 [B,G]2 F2 E2 | D2 _D2 =D2 | [A,C]2 D2 E2 | D6 |] %32
w: ||||
V:2
 z2 C2 B,2 | F,4 =E,2 | z2 C2 =B,2 | F,6 | z2 D2 C2 | z2 z2 G,2 | z2 D2 _D2 | D6 | z2 B,2 C2 | %9
 [B,D]4 [_A,D]2 | D2 E2 D2 | C,6 | z2 A,2 B,2 | z2 F,2 E2 | z2 z2 C2 | B,,6 | z2 =E,2 F,2 | %17
 G,4 ^F,2 | z2 =E,2 F,2 | F,6 | z2 =E,2 F,2 | G,4 ^F,2 | z2 =E,2 F,2 | [F,C]6 | z2 E2 D2 | %25
 z2 G,2 F,2 | z2 F,2 ^F,2 | E,6 | z2 A,2 G,2 | F,2 [=E,G,]2 F,2 | z2 B,2 C2 | [B,,F,B,]6 |] %32
V:3
 B,,6- | B,,6 | F,,6- | F,,6 | F,6- | F,6 | B,,6- | B,,6 | B,,6- | B,,4 z2 | [G,=B,]6 | x6 | C,6 | %13
 x6 | F,6 | x6 | B,,6- | B,,6 | B,,6- | B,,6 | F,,6- | F,,6 | F,,6- | F,,6 | [B,,B,]6 | C,4 z2 | %26
 B,,6 | x6 | E,6 | x6 | [F,,F,]6 | x6 |] %32
V:4
 x6 | x6 | x6 | x6 | x6 | F,,6 | x6 | x6 | x6 | x6 | x6 | x6 | x6 | F,,6- | F,,6 | x6 | x6 | x6 | %18
 x6 | x6 | x6 | x6 | x6 | x6 | x6 | x6 | x6 | x6 | x6 | x6 | x6 | x6 |] %32

